svg/material-icons/minor_crash/materialiconsround/20px.svg

<svg xmlns="http://www.w3.org/2000/svg" width="20" height="20" viewBox="0 0 20 20"><path d="m6.17 2.87 1.3 1.3a.742.742 0 1 1-1.05 1.05l-1.3-1.3a.742.742 0 0 1 0-1.05c.29-.28.77-.28 1.05 0zm7.66 0-1.3 1.3a.742.742 0 1 0 1.05 1.05l1.3-1.3c.29-.29.29-.76 0-1.05a.761.761 0 0 0-1.05 0zm-3.08 1.08v-2.2c0-.41-.34-.75-.75-.75s-.75.34-.75.75v2.2c0 .41.34.75.75.75s.75-.34.75-.75zM17 18v-5.71c0-.19-.04-.38-.11-.56l-1.52-3.79c-.22-.57-.77-.94-1.39-.94H6.02c-.62 0-1.17.37-1.4.94L3.1 11.73c-.06.18-.1.37-.1.56V18c0 .55.45 1 1 1s1-.45 1-1v-.5h10v.5c0 .55.45 1 1 1s1-.45 1-1zm-3.02-9.5 1 2.5H5.02l1-2.5h7.96zM7.5 14.25c0 .55-.45 1-1 1s-1-.45-1-1 .45-1 1-1 1 .45 1 1zm7 0c0 .55-.45 1-1 1s-1-.45-1-1 .45-1 1-1 1 .45 1 1z"/></svg>

<svg xmlns="http://www.w3.org/2000/svg" enable-background="new 0 0 20 20" height="20" viewBox="0 0 20 20" width="20"><g><rect fill="none" height="20" width="20"/></g><g><path d="M6.17,2.87l1.3,1.3c0.29,0.29,0.29,0.76,0,1.05c-0.29,0.29-0.76,0.29-1.05,0l-1.3-1.3c-0.29-0.29-0.29-0.76,0-1.05 C5.41,2.59,5.89,2.59,6.17,2.87z M13.83,2.87l-1.3,1.3c-0.29,0.29-0.29,0.76,0,1.05c0.29,0.29,0.76,0.29,1.05,0l1.3-1.3 c0.29-0.29,0.29-0.76,0-1.05C14.59,2.59,14.11,2.59,13.83,2.87z M10.75,3.95v-2.2C10.75,1.34,10.41,1,10,1S9.25,1.34,9.25,1.75v2.2 C9.25,4.36,9.59,4.7,10,4.7S10.75,4.36,10.75,3.95z M17,18v-5.71c0-0.19-0.04-0.38-0.11-0.56l-1.52-3.79C15.15,7.37,14.6,7,13.98,7 H6.02C5.4,7,4.85,7.37,4.62,7.94l-1.52,3.79C3.04,11.91,3,12.1,3,12.29L3,18c0,0.55,0.45,1,1,1c0.55,0,1-0.45,1-1v-0.5h10V18 c0,0.55,0.45,1,1,1C16.55,19,17,18.55,17,18z M13.98,8.5l1,2.5H5.02l1-2.5H13.98z M7.5,14.25c0,0.55-0.45,1-1,1c-0.55,0-1-0.45-1-1 s0.45-1,1-1C7.05,13.25,7.5,13.7,7.5,14.25z M14.5,14.25c0,0.55-0.45,1-1,1c-0.55,0-1-0.45-1-1s0.45-1,1-1 C14.05,13.25,14.5,13.7,14.5,14.25z"/></g></svg>
